src/pos-icons/message-text-clock-outline.svg

<svg height="24" viewBox="0 0 24 24" width="24" xmlns="http://www.w3.org/2000/svg"><path d="m22 12.41v-8.41c0-1.1-.89-2-2-2h-16c-1.1 0-2 .89-2 2v18l4-4h3.29c.86 2.89 3.54 5 6.71 5 3.86 0 7-3.13 7-7 0-1.31-.37-2.54-1-3.59m-16.83 3.59-1.17 1.17v-13.17h16v6.26c-1.14-.79-2.5-1.26-4-1.26-1.9 0-3.63.77-4.89 2h-5.11v2h3.69c-.44.91-.69 1.93-.69 3zm10.83 4.85c-2.68 0-4.85-2.17-4.85-4.85s2.17-4.85 4.85-4.85c2.67 0 4.85 2.17 4.85 4.85s-2.18 4.85-4.85 4.85m2-11.85h-12v-2h12zm-1.5 6.82 2.44 1.41-.75 1.3-3.19-1.84v-3.69h1.5z"/></svg>

<?xml version="1.0" encoding="UTF-8"?><!DOCTYPE svg PUBLIC "-//W3C//DTD SVG 1.1//EN" "http://www.w3.org/Graphics/SVG/1.1/DTD/svg11.dtd"><svg xmlns="http://www.w3.org/2000/svg" xmlns:xlink="http://www.w3.org/1999/xlink" version="1.1" id="mdi-message-text-clock-outline" width="24" height="24" viewBox="0 0 24 24"><path d="M22 12.41V4C22 2.9 21.11 2 20 2H4C2.9 2 2 2.89 2 4V22L6 18H9.29C10.15 20.89 12.83 23 16 23C19.86 23 23 19.87 23 16C23 14.69 22.63 13.46 22 12.41M5.17 16L4 17.17V4H20V10.26C18.86 9.47 17.5 9 16 9C14.1 9 12.37 9.77 11.11 11H6V13H9.69C9.25 13.91 9 14.93 9 16H5.17M16 20.85C13.32 20.85 11.15 18.68 11.15 16S13.32 11.15 16 11.15C18.67 11.15 20.85 13.32 20.85 16S18.67 20.85 16 20.85M18 9H6V7H18V9M16.5 15.82L18.94 17.23L18.19 18.53L15 16.69V13H16.5V15.82Z" /></svg>
